X:9
T:Bagpipe Hornpipe, A
M:3/2
L:1/4
Q:3/4=80
S:D.Wright, Extraordinary Collection, London 1713
N:g nataurals are not printed, but must be implied
Z:Pete Stewart, 2004 <www.hornpipemusic.co.uk>
K:C
"6/4 in book"eA B/c/d/B/c2 | ^GB2d B/c/d/B/ | eAB/c/d/B/c2 | EA2c B/c/d/B/ :|
 |: age/f/g/e/B2 | ec e/f/g/e/ B/c/d/B/ | age/f/g/e/B2 | eaeA B/c/B/A/ :|
 |: eaeAea | ^GBed B/c/d/B/ | eaeAea | cAeAB/c/B/A/ :|
 |: edc/d/e/c/ea | geg/a/g/e/ B/c/d/B/ | ec/d/e/c/eae | ^ge^ga"NB" =g/f/=g/e/ :|
 |: a>e g/f/g/a/g2 | GB2dB/c/d/B/ | a>e g/f/g/a/e2 | ea2eB/c/B/A/ :|
 |: c>AEF/E/E2 | cAef/e/ B/c/d/B/ | c>AEG/E/E2 | aAcAeA :|

